X:1
T:Title
%%score 1 2 3 4
L:1/8
Q:1/4=80
M:6/8
K:Bb
V:1 treble nm="Church Organ, Church Organ"
V:2 treble nm="French Horn, French Horn"
V:3 bass nm="Trombone, Trombone"
V:4 bass nm="Tuba, Tuba"
V:1
 F d2 ccB | G F2 G F2 | FGA BBc | d c2- c c2 | F d2 AcB | G F2 G F2 | F G2 GAG | F B2- B B2 | %8
w: By~Richard~S.~Willis * * * *||||||||
 d d2 DD=E | ^F G2 A B2 | dcB AGA | G F2- F F2 | F d2 AcB | G F2 G F2 | F G2 GAG | F B2- B B2 |] %16
w: ||||||||
V:2
 D D2 D E2 | E D2 E D2 | D E2 E =E2 | =E F2- F F2 | F D2 D E2 | E D2 E D2 | F E2 E E2 | %7
w: O~ lit tle~ town~|of~ Beth le hem,~|how~ still~ we~ see~|thee~ lie!~ * *|A bove~ thy~ deep~|and~ dream less~ sleep~|the~ si lent~ stars~|
 E D2- D D2 | D D2 DD=E | D D2 D D2 | D F2 F =E2 | =E F2- F F2 | E D2 D E2 | E D2 E D2 | %14
w: go~ by.~ * *|Yet~ in~ thy~ dark~ *|streets~ shin * eth~|the~ e ver last|ing~ Light;~ * *|The~ hopes~ and~ fears~|of~ all~ the~ years~|
 F E2 E E2 | E D2- D D2 |] %16
w: are~ met~ in~ thee~|to night.~ * *|
V:3
 F, F,2 ^F, G,2 | A, B,2 F, F,2 | B, B,2 B, B,2 | B, A,2- A, A,2 | F, F,2 ^F, G,2 | A, B,2 F, F,2 | %6
 B, B,2 CCB, | A, B,2- B, B,2 | D, D,2 ^F,F,G, | A, G,2 ^F, G,2 | G,A,[K:treble]D CB,C | %11
 B,[K:bass] A,2- A, A,2 | A, B,2 ^F, G,2 | A, B,2 F, F,2 | B, B,2 CCB, | A, B,2- B, B,2 |] %16
V:4
 B,, B,,2 B,, B,,2 | B,, B,,2 A,, B,,2 | B,,E,F, G, G,2 | C, F,2- F, F,2 | F, B,,2 B,, B,,2 | %5
 B,, B,,2 A,, B,,2 | D, E,2 C, F,2 | F, B,,2- B,, B,,2 | D, D,2 D, D,2 | C, B,,2 D, G,2 | %10
 B,, C,2 C, C,2 | C, F,2- F, F,2 | F, B,,2 B,, B,,2 | B,, B,,2 A,, B,,2 | D, E,2 C, F,2 | %15
 F, B,,2- B,, B,,2 |] %16

